build/svg/cmd/lc_backcolor.svg

<?xml version="1.0" encoding="UTF-8" standalone="no"?>
<svg
   xmlns:dc="http://purl.org/dc/elements/1.1/"
   xmlns:cc="http://creativecommons.org/ns#"
   xmlns:rdf="http://www.w3.org/1999/02/22-rdf-syntax-ns#"
   xmlns:svg="http://www.w3.org/2000/svg"
   xmlns="http://www.w3.org/2000/svg"
   xmlns:sodipodi="http://sodipodi.sourceforge.net/DTD/sodipodi-0.dtd"
   xmlns:inkscape="http://www.inkscape.org/namespaces/inkscape"
   viewBox="0 0 24 24"
   version="1.1"
   id="svg4"
   sodipodi:docname="lc_backcolor.svg"
   inkscape:version="0.92.5 (2060ec1f9f, 2020-04-08)"
   inkscape:export-filename="/home/jupiter007/Libreoffice yaru theme fullcolor/build/cmd/lc_backcolor.png"
   inkscape:export-xdpi="96"
   inkscape:export-ydpi="96">
  <metadata
     id="metadata10">
    <rdf:RDF>
      <cc:Work
         rdf:about="">
        <dc:format>image/svg+xml</dc:format>
        <dc:type
           rdf:resource="http://purl.org/dc/dcmitype/StillImage" />
      </cc:Work>
    </rdf:RDF>
  </metadata>
  <defs
     id="defs8" />
  <sodipodi:namedview
     pagecolor="#ffffff"
     bordercolor="#666666"
     borderopacity="1"
     objecttolerance="10"
     gridtolerance="10"
     guidetolerance="10"
     inkscape:pageopacity="0"
     inkscape:pageshadow="2"
     inkscape:window-width="1920"
     inkscape:window-height="1011"
     id="namedview6"
     showgrid="true"
     inkscape:zoom="19.666667"
     inkscape:cx="0.09341819"
     inkscape:cy="9.4290813"
     inkscape:window-x="0"
     inkscape:window-y="32"
     inkscape:window-maximized="1"
     inkscape:current-layer="svg4">
    <inkscape:grid
       type="xygrid"
       id="grid855" />
  </sodipodi:namedview>
  <rect
     style="opacity:1;vector-effect:none;fill:#2daaaa;fill-opacity:1;stroke:none;stroke-width:3;stroke-linecap:round;stroke-linejoin:round;stroke-miterlimit:4;stroke-dasharray:none;stroke-dashoffset:0;stroke-opacity:1"
     id="rect3830-5"
     width="6"
     height="6"
     x="9.5367432e-07"
     y="18" />
  <rect
     style="opacity:1;vector-effect:none;fill:#46a926;fill-opacity:1;stroke:none;stroke-width:3;stroke-linecap:round;stroke-linejoin:round;stroke-miterlimit:4;stroke-dasharray:none;stroke-dashoffset:0;stroke-opacity:1"
     id="rect3830-0-9"
     width="6"
     height="6"
     x="6.000001"
     y="18" />
  <rect
     style="opacity:1;vector-effect:none;fill:#fdc92b;fill-opacity:1;stroke:none;stroke-width:3;stroke-linecap:round;stroke-linejoin:round;stroke-miterlimit:4;stroke-dasharray:none;stroke-dashoffset:0;stroke-opacity:1"
     id="rect3830-2-2"
     width="6"
     height="6"
     x="11.999999"
     y="18" />
  <rect
     style="opacity:1;vector-effect:none;fill:#f34f17;fill-opacity:1;stroke:none;stroke-width:3;stroke-linecap:round;stroke-linejoin:round;stroke-miterlimit:4;stroke-dasharray:none;stroke-dashoffset:0;stroke-opacity:1"
     id="rect3830-3-2"
     width="6"
     height="6"
     x="18"
     y="18" />
  <rect
     style="opacity:1;vector-effect:none;fill:#31c6b7;fill-opacity:1;stroke:none;stroke-width:3;stroke-linecap:round;stroke-linejoin:round;stroke-miterlimit:4;stroke-dasharray:none;stroke-dashoffset:0;stroke-opacity:1"
     id="rect3830-9"
     width="6"
     height="6"
     x="9.5367432e-07"
     y="11.999999" />
  <rect
     style="opacity:1;vector-effect:none;fill:#76c22b;fill-opacity:1;stroke:none;stroke-width:3;stroke-linecap:round;stroke-linejoin:round;stroke-miterlimit:4;stroke-dasharray:none;stroke-dashoffset:0;stroke-opacity:1"
     id="rect3830-0-7"
     width="6"
     height="6"
     x="6.000001"
     y="11.999999" />
  <rect
     style="opacity:1;vector-effect:none;fill:#ffda64;fill-opacity:1;stroke:none;stroke-width:3;stroke-linecap:round;stroke-linejoin:round;stroke-miterlimit:4;stroke-dasharray:none;stroke-dashoffset:0;stroke-opacity:1"
     id="rect3830-2-3"
     width="6"
     height="6"
     x="11.999999"
     y="11.999999" />
  <rect
     style="opacity:1;vector-effect:none;fill:#fb7c38;fill-opacity:1;stroke:none;stroke-width:3;stroke-linecap:round;stroke-linejoin:round;stroke-miterlimit:4;stroke-dasharray:none;stroke-dashoffset:0;stroke-opacity:1"
     id="rect3830-3-6"
     width="6"
     height="6"
     x="18"
     y="11.999999" />
  <rect
     style="opacity:1;vector-effect:none;fill:#5bdbc1;fill-opacity:1;stroke:none;stroke-width:3;stroke-linecap:round;stroke-linejoin:round;stroke-miterlimit:4;stroke-dasharray:none;stroke-dashoffset:0;stroke-opacity:1"
     id="rect3830-29"
     width="6"
     height="6"
     x="9.5367432e-07"
     y="5.999999" />
  <rect
     style="opacity:1;vector-effect:none;fill:#a6d74f;fill-opacity:1;stroke:none;stroke-width:3;stroke-linecap:round;stroke-linejoin:round;stroke-miterlimit:4;stroke-dasharray:none;stroke-dashoffset:0;stroke-opacity:1"
     id="rect3830-0-3"
     width="6"
     height="6"
     x="6.000001"
     y="5.999999" />
  <rect
     style="opacity:1;vector-effect:none;fill:#fee581;fill-opacity:1;stroke:none;stroke-width:3;stroke-linecap:round;stroke-linejoin:round;stroke-miterlimit:4;stroke-dasharray:none;stroke-dashoffset:0;stroke-opacity:1"
     id="rect3830-2-1"
     width="6"
     height="6"
     x="11.999999"
     y="5.999999" />
  <rect
     style="opacity:1;vector-effect:none;fill:#fda463;fill-opacity:1;stroke:none;stroke-width:3;stroke-linecap:round;stroke-linejoin:round;stroke-miterlimit:4;stroke-dasharray:none;stroke-dashoffset:0;stroke-opacity:1"
     id="rect3830-3-9"
     width="6"
     height="6"
     x="18"
     y="5.999999" />
  <rect
     style="opacity:1;vector-effect:none;fill:#81e9c0;fill-opacity:1;stroke:none;stroke-width:3;stroke-linecap:round;stroke-linejoin:round;stroke-miterlimit:4;stroke-dasharray:none;stroke-dashoffset:0;stroke-opacity:1"
     id="rect3830-78"
     width="6"
     height="6"
     x="9.5367432e-07"
     y="-9.5367432e-07" />
  <rect
     style="opacity:1;vector-effect:none;fill:#cbe667;fill-opacity:1;stroke:none;stroke-width:3;stroke-linecap:round;stroke-linejoin:round;stroke-miterlimit:4;stroke-dasharray:none;stroke-dashoffset:0;stroke-opacity:1"
     id="rect3830-0-4"
     width="6"
     height="6"
     x="6.000001"
     y="-9.5367432e-07" />
  <rect
     style="opacity:1;vector-effect:none;fill:#fff4c9;fill-opacity:1;stroke:none;stroke-width:3;stroke-linecap:round;stroke-linejoin:round;stroke-miterlimit:4;stroke-dasharray:none;stroke-dashoffset:0;stroke-opacity:1"
     id="rect3830-2-5"
     width="6"
     height="6"
     x="11.999999"
     y="-9.5367432e-07" />
  <rect
     style="opacity:1;vector-effect:none;fill:#fec589;fill-opacity:1;stroke:none;stroke-width:3;stroke-linecap:round;stroke-linejoin:round;stroke-miterlimit:4;stroke-dasharray:none;stroke-dashoffset:0;stroke-opacity:1"
     id="rect3830-3-0"
     width="6"
     height="6"
     x="18"
     y="-9.5367432e-07" />
  <path
     d="M 14.996098,3.0019531 C 12.084885,5.9214265 9.1639259,8.8282666 6.25391,11.738281 l 0.00195,0.0039 -0.25,0.25 H 6 V 16 h 4.007816 c 2.904987,-2.902053 5.999963,-6.002631 8.990235,-8.9960938 l -3.998047,-4 z M 14.412113,4.9980469 17.000004,7.5878906 12.732426,11.855469 10.144535,9.265625 Z M 9.4375038,9.972656 12.025395,12.5625 11.318363,13.269531 8.7285194,10.679688 C 8.9659057,10.445071 9.201348,10.208507 9.4375038,9.972656 Z m -1.4160156,1.414063 2.5898438,2.589843 0.0039,0.002 -0.7070314,0.707031 -0.00391,-0.002 -2.5898338,-2.589844 z"
     id="path2"
     inkscape:connector-curvature="0"
     style="fill:#000000;fill-opacity:1;opacity:1"
     sodipodi:nodetypes="ccccccccccccccccccccccccccc" />
</svg>

<svg xmlns="http://www.w3.org/2000/svg" viewBox="0 0 24 24"><path fill="#2daaaa" d="M0 18h6v6H0z"/><path fill="#46a926" d="M6 18h6v6H6z"/><path fill="#fdc92b" d="M12 18h6v6h-6z"/><path fill="#f34f17" d="M18 18h6v6h-6z"/><path fill="#31c6b7" d="M0 12h6v6H0z"/><path fill="#76c22b" d="M6 12h6v6H6z"/><path fill="#ffda64" d="M12 12h6v6h-6z"/><path fill="#fb7c38" d="M18 12h6v6h-6z"/><path fill="#5bdbc1" d="M0 6h6v6H0z"/><path fill="#a6d74f" d="M6 6h6v6H6z"/><path fill="#fee581" d="M12 6h6v6h-6z"/><path fill="#fda463" d="M18 6h6v6h-6z"/><path fill="#81e9c0" d="M0 0h6v6H0z"/><path fill="#cbe667" d="M6 0h6v6H6z"/><path fill="#fff4c9" d="M12 0h6v6h-6z"/><path fill="#fec589" d="M18 0h6v6h-6z"/><path d="M14.996 3.002c-2.911 2.92-5.832 5.826-8.742 8.736l.002.004-.25.25H6V16h4.008c2.905-2.902 6-6.003 8.99-8.996l-3.998-4zm-.584 1.996L17 7.588l-4.268 4.267-2.587-2.59zM9.438 9.973l2.587 2.59-.707.707-2.59-2.59c.238-.235.473-.471.71-.707zM8.02 11.387l2.59 2.59.004.002-.707.707-.004-.002-2.59-2.59z"/></svg>
